X:1
T:Cantata 147 Jesus Bleibet Meine Freude
T:Johann Sebastian Bach
T:Actualización 08/10/2018 
%%score 1 2 3 4
L:1/8
M:3/4
K:G
V:1 treble nm="Soprano" snm="S."
V:2 treble nm="Alto" snm="A."
V:3 treble-8 nm="Tenor" snm="T."
V:4 bass nm="Bajo" snm="B."
V:1
 z6 | B4 c2 | d4 d2 | c4 B2 | A2 A2 z2 | z6 | B4 c2 | d4 B2 | Ac/c/ B2 A2 | G4 z2 | z6 | B4 c2 | %12
w: ||||||||||||
w: |Je- sus|blai- bet|mai- ne|Froi- de,||mai- ne|Her- zens|* Troost, * un *|Saft,||Je- sus|
 d4 d2 | c4 B2 | A2 A2 z2 | z6 | B4 c2 | d4 B2 | AB/c/ B2 A2 | G4 z2 | z6 | A4 B2 | c4 c2 | %23
w: ||||Eart- ist|mai- nes|Le- * * * bens|craft,||||
w: Ve- ret|al- lem|Lai- de|||||||mai- nar|Aug- men|
 B3 c/d/ B2 | A2 A2 z2 | z6 | c4 d2 | e4 e2 | d3 e/f/ d2 | c2 c2 z2 | z6 | B4 c2 | d4 d2 | c2 B4 | %34
w: |||||||||||
w: Lust- * un *|Son- ne||mai- nar|See- le|Sciaz- * * un|Von- ne||da- rum|lass- isc|E- sum|
 A4 z2 | z6 | B4 c2 | d4 B2 | AB/c/ A4 | G6 | z66 |] %41
w: |||||||
w: nisct||aus dem|Her- zen|unt * * Ge-|sict.||
V:2
 z6 | G4 G2 | A2 G2 F2 | G2 D4 | D2 D2 z2 | z6 | G4 G2 | G2 D2 E2 | E2 FE F2 | D4 z2 | z6 | G4 G2 | %12
w: |Je- sus|blai- * bet|mai- ne|Froi- de,||mai- ne|Her- * zens|Troost, * un *|Saft,||Je- sus|
 A2 G2 F2 | G2 D4 | D2 D2 z2 | z6 | G4 G2 | G2 D2 E2 | E2 FE F2 | D4 z2 | z6 | F4 ^G2 | A4 A2 | %23
w: Ve- * ret|al- lem|Lai- de||Eart- ist|mai- * nes|Le- * * bens|craft,||mai- nar|Aug- men|
 A4 ^G2 | A2 A2 z2 | z6 | A4 G2 | G2 c2 G2 | =F2 A2 G2 | G2 G2 z2 | z6 | G4 G2 | G4 G2 | GF G4 | %34
w: Lust un|Son- ne,||mai- nar|See- * le|Sciaz- * un|Von- ne||da- rum|lass- isc|E- * sum|
 F4 z2 | z6 | G4 G2 | G2 D2 E2 | E2 FE F2 | D6 | z66 |] %41
w: nisct,||aus dem|Her- * zen|unt- * * Ge|sict.||
V:3
 z6 | d4 e2 | A4 B2 | B2 A2 G2 | F2 A2 z2 | z6 | d4 e2 | d2 B2 B2 | cA dB c2 | B4 z2 | z6 | d4 e2 | %12
w: ||||||||||||
w: |Je- sus|blai- bet|mai- * ne|Froi- de,||mai- ne|Her- * zens|* Troost, un * *|Saft,||Je- sus|
 A4 B2 | B2 A2 G2 | F2 A2 z2 | z6 | d4 e2 | d2 B2 B2 | cA dB c2 | B4 z2 | z6 | d4 d2 | e4 =f2 | %23
w: ||||Eart- ist|mai- * nes|Le- * * * bens|craft||||
w: Ve- ret|al- * lem|Lai- de|||||||mai- nar|Aug- men|
 =f2 d2 e2 | c2 c2 z2 | z6 | e4 d2 | c4 c2 | A4 B2 | e2 e2 z2 | z6 | d4 e2 | d2 B2 B2 | c2 d2 e2 | %34
w: |||||||||||
w: Lust- * un|Son- ne||mai- nar|See- le|Sciaz- un|Von- ne||da- rum|lass- * isc|E- * sum|
 A4 z2 | z6 | d4 e2 | d2 B2 B2 | cA dB c2 | B6 | z66 |] %41
w: |||||||
w: nisct||aus dem|Her- * zen|unt- * * * Ge|sict.||
V:4
 z6 | G,2 F,2 E,2 | F,2 E,2 D,2 | E,2 F,2 G,2 | D,2 D,2 z2 | z6 | G,2 F,2 E,2 | B,2 B,,2 E,2 | %8
w: ||||||||
w: |Je- * sus|blai- * bet|mai- * ne|Froi- de,||mai- * ne|Her- * zens|
 C,2 D,2 D,2 | G,,4 z2 | z6 | G,2 F,2 E,2 | F,2 E,2 D,2 | E,2 F,2 G,2 | D,2 D,2 z2 | z6 | %16
w: Troost, un *||||||||
w: |Saft,||Je- * sus|Ve- * ret|al- * lem|Lai- de||
 G,2 F,2 E,2 | B,2 B,,2 E,2 | C,2 D,2 D,2 | G,,4 z2 | z6 | D,2 C,2 B,,2 | A,,2 A,G, =F,E, | %23
w: Eart- * ist|mai- * nes|Le- * bens|craft,||||
w: |||||mai- * nar|Aug- * * men *|
 D,2 B,,2 E,2 | A,,2 A,,2 z2 | z6 | A,4 B,2 | C2 A,2 E,2 | =F,2 D,2 G,2 | C,2 C,2 z2 | z6 | %31
w: ||||||||
w: Lust- * un|Son- ne||mai- nar|See- * le|Sciaz- * un|Von- ne||
 G,4 E,2 | B,2 E2 E,2 | A,,2 B,,2 C,2 | D,4 z2 | z6 | G,2 F,2 E,2 | B,2 B,,2 E,2 | C,2 D,4 | G,,6 | %40
w: |||||||||
w: da- rum|lass- * sic|E- * sum|nisct,||aus- * dem|Her- * zen|unt Ge-|sict.|
 z66 |] %41
w: |
w: |

